!!!OTL: ES GINGEN DREI JAEGER WOHL AUF DIE BIRSCH
!!!ARE: Europa, Mitteleuropa, Deutschland
!!!SCT: B0592
!!!YEM: Copyright 1995, estate of Helmut Schaffrath.
**kern
*ICvox
*Ivox
*M6/8
*k[f#c#]
*D:
{8d
=1
8.d
16f#
8a
8.dd
16cc#
8b
=2
8.b
16a
8a
4f#}
{8f#
=3
8.f#
16e
8f#
8.a
16e
8e
=4
8.g
16f#
8f#
4d}
{8d
=5
8.f#
16a
8dd
8.ff#
16ee
8dd
=6
8.ee
16dd
8cc#
4dd}
{8ff#
=7
4dd
8ff#
4dd
8a
=8
2dd
8r}
==
!!!AGN: Staende -, Jaeger - Lied
!!!ONB: ESAC (Essen Associative Code) Database: BOEHME
!!!AMT: compound duple
!!!AIN: vox
!!!EED: Helmut Schaffrath
!!!EEV: 1.0
*-
